X: 3
T: Miss Marys Frolick
%C: Mr. Gray
%R: jig
B: Mr. Gray "24 Country Dances for the Year 1803" p.2 #1
S: http://imslp.org/wiki/24_Country_Dances_for_the_Year_1803_(Various)  2013-12-2
Z: 2013 John Chambers <jc:trillian.mit.edu>
M: 6/8
L: 1/8
K: C
|:\
g3 ece | g3 fdf | ege cec | BdB GAB |\
cBc AGA | FEF Ddf | edc GAB | c3 c3 :|
|:\
d3 BGB | dfe fed | efg afd | gec BAG |\
AFA dfd | BGB ceg | Afe dcB | c3 c3 :|
% - - - - - - - - - - - - - - - - - - - - - - - - -
%%begintext align
%% Turn your Partner & cast off half right &
%% left lead down the middle up again &
%% poussette.
%%endtext

%%sep 1 1 500
%%sep 1 1 500
